svgs/light/child-dress.svg

<svg xmlns="http://www.w3.org/2000/svg" viewBox="0 0 320 512"><!--! Font Awesome Pro 6.3.0 by @fontawesome - https://fontawesome.com License - https://fontawesome.com/license (Commercial License) Copyright 2023 Fonticons, Inc. --><path d="M95.1 64C95.1 28.65 124.7 0 159.1 0C195.3 0 223.1 28.65 223.1 64C223.1 99.35 195.3 128 159.1 128C124.7 128 95.1 99.35 95.1 64V64zM159.1 96C177.7 96 191.1 81.67 191.1 64C191.1 46.33 177.7 32 159.1 32C142.3 32 127.1 46.33 127.1 64C127.1 81.67 142.3 96 159.1 96zM96 400H71.1C67.02 400 62.33 397.7 59.3 393.7C56.27 389.8 55.25 384.6 56.55 379.8L98.02 225.8L28.57 313.9C23.1 320.8 13.03 322 6.095 316.6C-.8442 311.1-2.034 301 3.437 294.1L77.69 199.9C96.52 176 124.7 161.6 154.1 160.1C156.2 160 157.4 160 158.7 160H161.3C162.6 160 163.8 160 165 160.1C195.3 161.6 223.5 176 242.3 199.9L316.6 294.1C322 301 320.8 311.1 313.9 316.6C306.1 322 296.9 320.8 291.4 313.9L221.1 225.8L263.5 379.8C264.7 384.6 263.7 389.8 260.7 393.7C257.7 397.7 252.1 400 248 400H224V496C224 504.8 216.8 512 208 512C199.2 512 192 504.8 192 496V400H128V496C128 504.8 120.8 512 112 512C103.2 512 96 504.8 96 496L96 400zM135.5 209.8L92.87 368H227.1L184.5 209.8C181.9 199.9 173.2 192.8 163.2 192.1C162.1 192 161.1 192 160 192C158.9 192 157.9 192 156.8 192.1C146.8 192.8 138.1 199.9 135.5 209.8z"/></svg>

<svg xmlns="http://www.w3.org/2000/svg" viewBox="0 0 320 512"><!--! Font Awesome Pro 6.4.0 by @fontawesome - https://fontawesome.com License - https://fontawesome.com/license (Commercial License) Copyright 2023 Fonticons, Inc. --><path d="M160 96a32 32 0 1 0 0-64 32 32 0 1 0 0 64zm0-96a64 64 0 1 1 0 128A64 64 0 1 1 160 0zM96 400H72c-5 0-9.7-2.3-12.7-6.3s-4-9.1-2.8-13.9L98 225.8 28.6 313.9c-5.5 6.9-15.5 8.1-22.5 2.7S-2 301 3.4 294.1l74.3-94.2c18.8-23.9 47.1-38.3 77.3-39.8c1.2-.1 2.5-.1 3.7-.1H160h1.3c1.2 0 2.5 0 3.7 .1c30.2 1.5 58.4 15.9 77.3 39.8l74.3 94.2c5.5 6.9 4.3 17-2.7 22.5s-17 4.3-22.5-2.7L222 225.8l41.5 154c1.3 4.8 .3 9.9-2.8 13.9s-7.7 6.3-12.7 6.3H224v96c0 8.8-7.2 16-16 16s-16-7.2-16-16V400H128v96c0 8.8-7.2 16-16 16s-16-7.2-16-16V400zm60.8-207.9c-10.1 .8-18.7 7.8-21.4 17.7L92.9 368H227.1L184.5 209.8c-2.7-9.9-11.3-16.9-21.4-17.7c-1.1 0-2.1-.1-3.2-.1s-2.1 0-3.2 .1z"/></svg>
